!!!COM: Handel, George Frideric
!!!OTL: Largo from Xerxes (Arranged)
!!!ODT: 1738///
**kern	**kern	**dynam
*staff2	*staff1	*staff1
*Ipiano	*Ipiano	*Ipiano
*clefF4	*clefG2	*clefG2
*k[f#]	*k[f#]	*k[f#]
*M3/4	*M3/4	*M3/4
*MM60	*MM60	*MM60
=1-	=1-	=1-
*	*^	*
(4GG'/ 4D'/	[2.g/	(4B'\	p
4GG'/ 4D'/	.	4B'\	.
4GG'/) 4D'/	.	4B'\)	.
=2	=2	=2	=2
(4AA'/ 4D'/	4g/]	(4c'\	.
4AA'/ 4D'/	4f#/	4c'\	.
4AA'/) 4D'/	8.e/L	4c'\)	.
.	16d/Jk	.	.
*	*v	*v	*
=3	=3	=3
4BB'\ (4G'\	2.d/	.
4BB'\ 4G'\	.	.
4BB'\ 4G'\)	.	.
=4	=4	=4
4C\ 4G\	4e/	.
4A\ (4c\	4f#/	.
4G\ 4B\)	(12g/L	.
.	12a/	.
.	12b/J)	.
=5	=5	=5
*	*^	*
4D\ 4F#\	2.a/	4d\	.
4D\ 4F#\	.	4d\	.
4D\ 4F#\	.	4d\	.
=6	=6	=6	=6
(4c'\	[2ee/	4g\	.
4c'\	.	4g\	.
4c'\)	8.ee/L]	4g\	.
.	16dd/Jk	.	.
=7	=7	=7	=7
4B'\ (4d'\	2.dd/	4g\	.
4B'\ 4d'\	.	4g\	.
4B'\ 4d'\)	.	4g\	.
=8	=8	=8	=8
4A'\ (4d'\	[2cc/	4f#\	.
4A'\ 4d'\	.	4f#\	.
4A'\ 4d'\)	8.cc/L]	4f#\	.
.	16b/Jk	.	.
=9	=9	=9	=9
4G'\ (4d'\	2.b/	(4g\	.
4G'\ 4d'\	.	4g'\	.
4G'\ 4d'\)	.	4g'\)	.
*	*v	*v	*
=10	=10	=10
4G'\	4b\ 4gg\	.
(4A\	4cc\ (4gg\	.
4B\)	4dd\ 4ff#\)	.
=11	=11	=11
*	*^	*
2c\	4ff#/	2g\	.
.	(8.ee/L	.	.
.	16dd/Jk)	.	.
4d\	4dd/	4f#\	.
=12	=12	=12	=12
4e\	(8dd/L	4g\	.
.	8cc#/J)	.	.
4E'\ (4A'\	(4cc#'/	4g\	.
4E'\ 4A'\)	4cc#'/)	4g\	.
=13	=13	=13	=13
*^	*	*	*
4A/	2F#\	2.dd/	4.a\	.
2d/	.	.	.	.
.	.	.	8ccn\	.
.	4G\	.	4b\	.
*v	*v	*	*	*
=14	=14	=14	=14
4c\ 4e\	(8cc/L	8a\L	.
.	8b/J)	8g\J	.
4d\	4.a/	4g\	.
4D\	.	4f#\	.
.	8g/	.	.
=15	=15	=15	=15
*^	*	*	*
4B/	4G\	4g/	4d\	.
2ryy	4r	[2dd^/	4r	.
.	4r	.	4r	.
*v	*v	*	*	*
=16	=16	=16	=16
(4G'\	2.dd/_	4g\ 4b\	.
4G'\	.	4g\ 4b\	.
4G'\)	.	4g\ 4b\	.
=17	=17	=17	=17
4D\ (4A\	(4dd/]	4f#\	.
4D\ 4B\	4b/)	4f#\	.
4D\ 4c\)	8.a/L	4f#\	.
.	16g/Jk	.	.
*	*v	*v	*
=18	=18	=18
4E'\ (4B'\	[2.g/	.
4E'\ 4G'\ 4B'\	.	.
4E'\ 4G'\ 4B'\)	.	.
=19	=19	=19
*	*^	*
4BB'\ (4G'\	4g/]	4d\	.
4BB'\ 4G'\	4f#/	4d\	.
4C'\ 4G'\)	(8.e/L	4c\	.
.	16d/Jk)	.	.
*	*v	*v	*
=20	=20	=20
4G'\ (4B'\	2.d/	.
4G'\ 4B'\	.	.
4G'\ 4B'\)	.	.
=21	=21	=21
(4C/	4c/ 4e/	.
4AA/	4c/ 4f#/	.
*	*^	*
4GG/)	12g/L	4B\	.
.	(12a/	.	.
.	12b/J)	.	.
=22	=22	=22	=22
(4D'\	4.f#/ 4.a/	2.d\	.
4D'\	.	.	.
.	8e/ 8g/	.	.
4D'\)	4f#/ 4a/	.	.
*	*v	*v	*
=23	=23	=23
4C/	4g'\ (4ee'\	.
4c'\ (4e'\	4g'\ 4ee'\	.
4c'\ 4d'\)	4a'\ 4ff#'\)	.
=24	=24	=24
*	*^	*
4B'\ (4d'\	4.gg/	2.g\	.
4B'\ 4d'\	.	.	.
.	8dd/	.	.
4B'\ 4d'\)	4dd/	.	.
=25	=25	=25	=25
(4c\	8r	4g\	.
.	8ee/	.	.
4A\	4.cc/	4g\	.
4d\)	.	4f#\	.
.	8b/	.	.
=26	=26	=26	=26
4G'\ (4d'\	2b/	2g\	.
4G'\ 4d'\)	.	.	.
4GG/	[4g/	4B\	.
=27	=27	=27	=27
(4AA'/	4g/]	4c\	.
4AA'/	4f#/	4c\	.
4AA'/)	8.e/L	4c\	.
.	16d/Jk	.	.
*	*v	*v	*
=28	=28	=28
4BB'\ (4G'\	2.d/	.
4BB'\ 4G'\	.	.
4BB'\ 4G'\)	.	.
=29	=29	=29
*	*^	*
(4E'\	(4cc'/	4g\	.
4F#'\	4cc'/	4a\	.
4G'\)	4b'/)	4g\	.
=30	=30	=30	=30
4c\	4.a/	4e\	.
4c\ 4d\	.	4f#\	.
.	8g/	.	.
4B\ 4d\	4g/	4g\	.
*	*v	*v	*
=31	=31	=31
4A'\	4cc'\ 4ff#'\	.
(4A\	4cc\ (4ff#\	.
4G\)	4b\ 4ee\)	.
=32	=32	=32
*	*^	*
(4F#\	(4.dd#/	2a\	.
4B\	.	.	.
.	16cc#/LL	.	.
.	16dd#/JJ	.	.
4cn\)	4ee/)	4g\	.
=33	=33	=33	=33
4A\	8r	4r	.
.	8a/	.	.
4B\	4.f#/	2d#\	.
4BB/	.	.	.
.	8e/	.	.
=34	=34	=34	=34
4C/	4e/	4e\	.
4AA/	[2cc/	4e\ 4a\	.
4A\	.	4e\ 4g\	.
=35	=35	=35	=35
4D\	4cc/]	4d\ 4f#\	.
4G\	(8b/L	4d\ 4g\	.
.	8a/J	.	.
4GG/	4b/)	4d\ 4g\	.
=36	=36	=36	=36
4D\	8.a/L	2f#\	.
.	16g/Jk	.	.
4d\	4a/	.	.
[4c\	[4ee/	[4f#\	.
=37	=37	=37	=37
4c\]	4ee/]	4f#\]	.
4B\	4dd/	4g\	.
4A\	(8.cc/L	4f#\	.
.	16b/Jk)	.	.
=38	=38	=38	=38
4G\	2b/	2g\	.
4G\	.	.	.
*	*v	*v	*
4A\	4r	.
=39	=39	=39
*	*^	*
4B\	4gg/	4dd\	.
4B\	4gg/	4dd\	.
4B\	[4ff#/	[4dd\	.
=40	=40	=40	=40
4c\	4ff#/]	4dd\]	.
4c\	(8.ee/L	4cc\	.
.	16dd/Jk)	.	.
4d\ 4f#\	4dd/	4a\	.
=41	=41	=41	=41
(4e'\	(8.dd/L	4g\	.
.	16cc#/Jk)	.	.
4e'\	4.cc#/	4g\	.
4e'\)	.	4g\	.
.	8cc#/	.	.
=42	=42	=42	=42
(4d\	4.dd/	2f#\	.
4cn\	.	.	.
.	8ee/	.	.
4B\)	4dd/	4g\	.
=43	=43	=43	=43
4c\	(8ccn/L	8a\L	.
.	8b/J)	8g\J	.
4d\	4.a/	4.f#\	.
4D\	.	.	.
.	8ff#/	[8dd\	.
=44	=44	=44	=44
2.E;\	2.gg;/	4dd\]	.
.	.	(8cc\L	.
.	.	8b\J)	.
.	.	4cc;\	.
=45	=45	=45	=45
4c\	12a/L	4e\	p
.	12b/	.	.
.	12cc/J	.	.
4d\	4b/	4g\	.
4D\ 4c\	(8.a/L	4f#\	.
.	16g/Jk)	.	.
*	*v	*v	*
=46	=46	=46
4G\ 4B\	4g/	.
4G\	4b\ 4dd\	.
4A\	4cc\ 4ff#\	.
=47	=47	=47
4B\	4dd\ 4gg\	.
4B\	4dd\ 4gg\	.
4B\	4dd\ [4ff#\	.
=48	=48	=48
4c\	4dd\ 4ff#\]	.
*	*^	*
4c\	(8.ee/L	4cc\	.
.	16dd/Jk)	.	.
4d\ 4f#\	4dd/	4a\	.
=49	=49	=49	=49
(4e'\	(8dd/L	4g\	.
.	8cc#/J)	.	.
4e'\	4.cc#/	4g\	.
4e'\)	.	4g\	.
.	8cc#/	.	.
=50	=50	=50	=50
(4d\	4.dd/	2f#\	.
4cn\	.	.	.
.	8ee/	.	.
4B\)	4dd/	4g\	.
=51	=51	=51	=51
4c\	(8ccn/L	8a\L	.
.	8b/J)	8g\J	.
4d\	4.a/	4g\	.
4D\ 4c\	.	4f#\	.
.	8g/	.	.
=52	=52	=52	=52
2.G;\ 2.B;\	2.g/	2.d\	.
*	*v	*v	*
==	==	==
*-	*-	*-
